X: 10
T: Tobin's Favourite
Z: Jim Sime
S: https://thesession.org/tunes/308#setting53253
R: jig
M: 6/8
L: 1/8
K: Dmaj
|:F|"D" DFA dcd|"A"ecA cde|"D" f3 "G"g3|"A"ecA "G"GFE|
"D" DFA dcd|"A"ecA cde|"D" f3 "G"g3|"A" edc "D"d2:|
|:e|"D" faa agf|"A" efg efg|"D"f3 "G"g3|"A"ecA "G"GFE|
"D" DFA dcd|"A"ecA cde|"D" f3 "G"ged|"A" edc "D"d2:|

%-------------------- TUNE SEPARATOR --------------------%

